X: 43621
T: Zakynthos, The
R: jig
M: 6/8
K: Aminor
[M:5/8]|:a2 gag|e2a- ag|ec BcB|AF F2F|
EAB cB|FAB cB|B2 edB|cd cBA:|
|:EA cBA|FA cBA|B2 edB|Bcd BA|
EA cBA|FA cBA|B2 edB|1 B2 A2 F:|2 B2 A2 B||
|:d2 d2 c|dcd BA|d3/2 d3/2 cd|BcB BA|
d2 d2 c|dcd B A|d3/2 d3/2 cd|e2 ecA:|

